packages/core/src/svgs/tokens/mono/RSR.svg

<svg width="24" height="24" viewBox="0 0 24 24" fill="none" xmlns="http://www.w3.org/2000/svg">
<path fill-rule="evenodd" clip-rule="evenodd" d="M7.3441 2.00018H9.78412C9.88284 1.99518 10.1122 2.09019 10.1246 2.50893C10.1372 2.9283 10.1297 4.99579 10.1246 6.03826C10.1242 6.04427 10.1235 6.05059 10.1229 6.05714C10.1117 6.17201 10.0927 6.36394 10.3647 6.37576C10.6523 6.38826 12.6478 6.38139 13.6103 6.37576C13.799 6.37451 13.8747 6.26764 13.8747 6.03889V2.39831C13.8747 2.26582 14.0191 2.00081 14.2808 2.00081H16.6996C16.7864 2.02455 16.8629 2.07637 16.9172 2.14816C16.9714 2.21995 17.0005 2.30769 16.9996 2.39768V6.03826C17.0152 6.15515 17.1458 6.37576 17.3083 6.37576H20.3358C20.5309 6.37576 20.7496 6.50077 20.7496 6.71764V9.18256C20.7434 9.28829 20.6527 9.49887 20.3358 9.49887H17.3083C17.2252 9.50324 16.9996 9.55005 16.9996 9.82072V14.2031C16.999 14.2976 17.1065 14.4882 17.3083 14.4994C17.5109 14.5107 19.4109 14.5038 20.3358 14.4994C20.4733 14.5175 20.7496 14.6307 20.7496 14.935V17.295C20.7246 17.4019 20.6064 17.6256 20.3358 17.6256H17.3083C17.2252 17.6374 16.9996 17.7013 16.9996 17.9062V21.7012C16.9908 21.8006 16.9722 22 16.7308 22H14.1916C14.1085 21.9787 13.8747 21.8887 13.8747 21.7012V17.9056C13.8652 17.8088 13.8428 17.625 13.559 17.625H10.381C10.2891 17.6431 10.1347 17.7156 10.1246 17.9056C10.1147 18.0956 10.1203 20.4844 10.1246 21.7012C10.1122 21.8006 10.0048 22 9.80468 22H7.2391C7.15161 21.9888 6.99974 21.9125 6.99974 21.7012V17.9056C7.00786 17.8088 6.93411 17.625 6.66349 17.625H3.50976C3.41914 17.6119 3.2404 17.5094 3.2504 17.245C3.25978 16.9806 3.25415 15.527 3.2504 14.8213C3.29727 14.7138 3.45352 14.4989 3.70102 14.4989H6.66349C6.76786 14.4882 6.99974 14.3825 6.99974 14.0395V10.0269C7.00411 9.91011 6.98724 9.49828 6.57662 9.49828H3.7004C3.54539 9.49828 3.2504 9.48516 3.2504 9.05261V6.77139C3.26914 6.64326 3.36978 6.37514 3.61915 6.37514H6.57662C6.58708 6.3742 6.5979 6.37336 6.60899 6.3725C6.77463 6.35959 6.99974 6.34206 6.99974 5.92265V2.39768C6.97849 2.26519 7.07911 2.00018 7.3441 2.00018ZM10.3288 9.49974H13.6132C13.7038 9.5241 13.8813 9.62851 13.8725 9.85222C13.8632 10.0759 13.8689 12.8715 13.8725 14.2409C13.8875 14.3221 13.8569 14.4872 13.6132 14.4965C13.3694 14.5066 11.3226 14.5003 10.3288 14.4965C10.257 14.4965 10.1258 14.3972 10.1258 14.2409V9.73088C10.1258 9.61976 10.1932 9.49974 10.3288 9.49974Z" fill="white"/>
</svg>

<svg xmlns="http://www.w3.org/2000/svg" width="24" height="24" fill="none" viewBox="0 0 24 24">
    <path fill="#fff" fill-rule="evenodd" d="M7.344 2h2.44c.099-.005.328.09.34.509s.006 2.487 0 3.53l-.001.018c-.011.115-.03.307.242.319.287.012 2.283.005 3.245 0 .189-.001.265-.108.265-.337v-3.64c0-.133.144-.398.406-.398H16.7a.41.41 0 0 1 .3.397v3.64c.015.117.146.338.308.338h3.028c.195 0 .414.125.414.342v2.465c-.007.105-.097.316-.414.316h-3.028c-.083.004-.308.051-.308.322v4.382c-.001.095.107.285.308.296.203.012 2.103.005 3.028 0 .137.018.414.132.414.436v2.36c-.025.107-.144.33-.414.33h-3.028c-.083.012-.308.076-.308.281v3.795c-.01.1-.028.299-.27.299h-2.538c-.084-.021-.317-.111-.317-.299v-3.795c-.01-.097-.032-.281-.316-.281h-3.178c-.092.018-.246.09-.256.28s-.005 2.58 0 3.796c-.013.1-.12.299-.32.299H7.239c-.087-.011-.24-.087-.24-.299v-3.795c.009-.097-.065-.281-.336-.281H3.51c-.09-.013-.27-.116-.26-.38s.004-1.718 0-2.424c.047-.107.204-.322.451-.322h2.962c.105-.01.337-.117.337-.46v-4.012c.004-.117-.013-.529-.423-.529H3.7c-.155 0-.45-.013-.45-.445V6.77c.02-.128.12-.396.37-.396h2.957l.032-.003c.166-.012.39-.03.39-.45V2.399C6.98 2.265 7.08 2 7.345 2m2.985 7.5h3.284c.09.024.268.129.26.352-.01.224-.004 3.02 0 4.389.014.081-.016.246-.26.255s-2.29.004-3.284 0c-.072 0-.203-.099-.203-.255V9.73c0-.111.067-.231.203-.231" clip-rule="evenodd"/>
</svg>
